X:1
T:amrak ajib
T:Samira Said - Amrak ajib (3 partie) Saâd Benazouz
L:1/8
Q:1/4=80
M:3/8
K:Bb
V:1 treble nm="Piano" snm="Pno."
V:1
 d |:S G,G,/A,/B,/C/ | D/E/D/E/d | G,/d/g/^f/a/g/ | b/a/c'/b/d | G,G,/A,/B,/C/ | D/E/D/E/d | %7
 G,/d/g/^f/a/g/ | b/a/c'/b/a/4b/4a/4b/4 | g2 a/4b/4a/4b/4 | g2 a/4b/4a/4b/4 | %11
 g/4 z/4 A/4B/4c/4d/4c/4B/4A/4G/4F/4D/4 | E2 e/4d/4e/4d/4 | A2 e/4d/4e/4d/4 | =Bcd | agf | Bed | %17
 cGB |1 e/4f/4e/4f/4d/4 z/4 z/ d :| e/4f/4e/4f/4 d2 | =e/4^f/4e/4f/4 d2 | e/4f/4e/4f/4 d2 | %22
 =e/4^f/4e/4f/4d!fine! || A/ z/ | D/G/ z/ B,/C/ z/ | E/4D/4C/4D/4E/4F/4G/4F/4G/4F/4E/4F/4 | %26
 G/4A/4B/4c/4A/4F/4D/4 z/4 A/ z/ | D/G/ z/ B,/C/ z/ | a/4b/4a/4b/4c'/^f/4g/4f/4g/4a/ | %29
 e/4f/4e/4f/4g/4e/4c/4A/ z/4 z/ | D/G/ z/ B,/C/ z/ | ^b/4a/4 z/ f/4e/4 z/ z/4 _b/4a/4e/4 | %32
 d/4c/4a/4f/4e/4c/4g/4e/4A/ z/ | D/G/ z/ B,/C/ z/ | e'/d'/ z/ D/B,/C/ | x3 | %36
 e/4d/4c/4A/4B/4d/4c/4G/4A/4c/4B/4G/4 | A/4^F/4E/4D/4A/4G/4B/4A/4c/4B/4d/4c/4 | %38
 e/4d/4 z/4 B/4G/4 z/4 c/4A/4 z/4 E/4D/4 z/4 | C/4=B,/4 z/ z/ b/4a/ z/4 z/ | %40
 B/4A/4G/4A/4B/4d/4g/4a/4b | z/ B/4A/4G/4A/4B/4d/4g/4a/4=b/ | %42
 z/ G,/4A,/4B,/4A,/4B,/4C/4D/4^F/4G/4A/4 | B/4A/4B/4c/4d/4e/4^f/4g/4a/4b/4c'/4d'/4 | %44
 z/4 e'/d'/4 z/ z/4 d'/4e'/d'/4 z/4 | z/ d'/4e'/d'/4 z/ d!D.S.! | z3 | z3 | z3 | z3 | z3 | z3 | %52
 z3 | z3 | z3 | z3 | z3 | z3 | z3 | z3 | z3 | z3 |] %62

